assets/icons/face.svg

<svg width="24" height="24" viewBox="0 0 24 24" fill="none" xmlns="http://www.w3.org/2000/svg">
<g clip-path="url(#clip0_340_13984)">
<path fill-rule="evenodd" clip-rule="evenodd" d="M5.03998 11.38C5.03998 6.99498 8.08498 3.59998 12 3.59998C15.915 3.59998 18.96 6.99598 18.96 11.38C18.96 12.868 18.558 14.358 17.916 15.676C17.8323 15.8477 17.6838 15.9792 17.5032 16.0414C17.3226 16.1037 17.1247 16.0917 16.953 16.008C16.7812 15.9243 16.6498 15.7758 16.5875 15.5952C16.5253 15.4146 16.5373 15.2167 16.621 15.045C17.184 13.89 17.52 12.615 17.52 11.379C17.52 7.64198 14.979 5.03998 12 5.03998C9.02198 5.03998 6.47998 7.64198 6.47998 11.38C6.47998 12.615 6.81598 13.89 7.37898 15.045C7.45517 15.2156 7.46206 15.4091 7.3982 15.5847C7.33434 15.7603 7.20472 15.9042 7.03674 15.9859C6.86875 16.0677 6.67555 16.081 6.49795 16.023C6.32036 15.965 6.17227 15.8402 6.08498 15.675C5.44198 14.358 5.03998 12.868 5.03998 11.379V11.38ZM8.85398 18.294C8.90996 18.2177 8.98042 18.1532 9.06134 18.1042C9.14226 18.0552 9.23204 18.0226 9.32556 18.0083C9.41908 17.994 9.51451 17.9982 9.60638 18.0208C9.69825 18.0434 9.78476 18.0839 9.86098 18.14C10.603 18.684 11.341 18.96 12 18.96C12.66 18.96 13.397 18.684 14.14 18.14C14.2157 18.0783 14.3032 18.0326 14.3971 18.0058C14.491 17.9789 14.5894 17.9715 14.6863 17.9839C14.7832 17.9963 14.8765 18.0283 14.9606 18.0779C15.0448 18.1275 15.1179 18.1937 15.1757 18.2725C15.2334 18.3513 15.2745 18.441 15.2965 18.5362C15.3184 18.6313 15.3208 18.73 15.3034 18.8261C15.286 18.9222 15.2493 19.0138 15.1954 19.0953C15.1415 19.1767 15.0716 19.2464 14.99 19.3C14.086 19.965 13.055 20.4 12 20.4C10.945 20.4 9.91398 19.965 9.00998 19.3C8.85592 19.1872 8.75294 19.0179 8.72369 18.8293C8.69444 18.6406 8.7413 18.4481 8.85398 18.294Z" fill="#485FC7"/>
<path fill-rule="evenodd" clip-rule="evenodd" d="M13.733 16.11C13.7606 16.1485 13.7804 16.192 13.7912 16.2381C13.802 16.2842 13.8036 16.332 13.7959 16.3788C13.7881 16.4255 13.7713 16.4702 13.7463 16.5104C13.7212 16.5506 13.6885 16.5855 13.65 16.613C13.1714 16.9647 12.5939 17.1562 12 17.16C11.4061 17.1563 10.8285 16.9648 10.35 16.613C10.2723 16.5573 10.2199 16.473 10.2043 16.3787C10.1887 16.2844 10.2113 16.1877 10.267 16.11C10.3227 16.0323 10.407 15.9799 10.5013 15.9644C10.5956 15.9488 10.6923 15.9713 10.77 16.027C11.142 16.294 11.56 16.44 12 16.44C12.44 16.44 12.858 16.294 13.23 16.027C13.2684 15.9994 13.312 15.9796 13.3581 15.9688C13.4042 15.958 13.452 15.9564 13.4987 15.9642C13.5454 15.9719 13.5902 15.9887 13.6304 16.0137C13.6706 16.0388 13.7054 16.0715 13.733 16.11ZM8.51999 16.8C8.51999 16.7045 8.48206 16.613 8.41454 16.5455C8.34703 16.478 8.25546 16.44 8.15999 16.44H6.71999C6.67271 16.44 6.6259 16.4493 6.58222 16.4674C6.53854 16.4855 6.49886 16.512 6.46543 16.5455C6.432 16.5789 6.40548 16.6186 6.38739 16.6623C6.3693 16.7059 6.35999 16.7528 6.35999 16.8C6.35999 16.8473 6.3693 16.8941 6.38739 16.9378C6.40548 16.9815 6.432 17.0212 6.46543 17.0546C6.49886 17.088 6.53854 17.1145 6.58222 17.1326C6.6259 17.1507 6.67271 17.16 6.71999 17.16H7.79999V18.24C7.79999 18.3355 7.83791 18.4271 7.90543 18.4946C7.97294 18.5621 8.06451 18.6 8.15999 18.6C8.25546 18.6 8.34703 18.5621 8.41454 18.4946C8.48206 18.4271 8.51999 18.3355 8.51999 18.24V16.8Z" fill="#485FC7"/>
<path fill-rule="evenodd" clip-rule="evenodd" d="M8.17397 16.7849C8.20753 16.8184 8.23416 16.8581 8.25233 16.9019C8.2705 16.9456 8.27986 16.9926 8.27986 17.0399C8.27986 17.0873 8.2705 17.1342 8.25233 17.178C8.23416 17.2218 8.20753 17.2615 8.17397 17.2949L6.73397 18.7349C6.66634 18.8024 6.57467 18.8403 6.47912 18.8402C6.38357 18.8401 6.29197 18.8021 6.22447 18.7344C6.15698 18.6668 6.11911 18.5751 6.1192 18.4796C6.1193 18.384 6.15734 18.2924 6.22497 18.2249L7.66497 16.7849C7.69842 16.7514 7.73816 16.7247 7.78192 16.7066C7.82568 16.6884 7.87259 16.6791 7.91997 16.6791C7.96735 16.6791 8.01427 16.6884 8.05803 16.7066C8.10179 16.7247 8.14153 16.7514 8.17497 16.7849H8.17397ZM15.48 16.7999C15.48 16.7045 15.5179 16.6129 15.5854 16.5454C15.6529 16.4779 15.7445 16.4399 15.84 16.4399H17.28C17.3272 16.4399 17.3741 16.4493 17.4177 16.4673C17.4614 16.4854 17.5011 16.512 17.5345 16.5454C17.568 16.5788 17.5945 16.6185 17.6126 16.6622C17.6307 16.7059 17.64 16.7527 17.64 16.7999C17.64 16.8472 17.6307 16.894 17.6126 16.9377C17.5945 16.9814 17.568 17.0211 17.5345 17.0545C17.5011 17.0879 17.4614 17.1144 17.4177 17.1325C17.3741 17.1506 17.3272 17.1599 17.28 17.1599H16.2V18.2399C16.2 18.3354 16.162 18.427 16.0945 18.4945C16.027 18.562 15.9355 18.5999 15.84 18.5999C15.7445 18.5999 15.6529 18.562 15.5854 18.4945C15.5179 18.427 15.48 18.3354 15.48 18.2399V16.7999Z" fill="#485FC7"/>
<path fill-rule="evenodd" clip-rule="evenodd" d="M15.826 16.785C15.7924 16.8184 15.7658 16.8581 15.7476 16.9019C15.7294 16.9457 15.7201 16.9926 15.7201 17.04C15.7201 17.0873 15.7294 17.1343 15.7476 17.178C15.7658 17.2218 15.7924 17.2615 15.826 17.295L17.266 18.735C17.3336 18.8025 17.4253 18.8403 17.5208 18.8402C17.6164 18.8401 17.708 18.8021 17.7755 18.7345C17.843 18.6668 17.8808 18.5752 17.8807 18.4796C17.8807 18.3841 17.8426 18.2925 17.775 18.225L16.335 16.785C16.3015 16.7514 16.2618 16.7248 16.218 16.7066C16.1743 16.6884 16.1274 16.6791 16.08 16.6791C16.0326 16.6791 15.9857 16.6884 15.9419 16.7066C15.8982 16.7248 15.8584 16.7514 15.825 16.785H15.826Z" fill="#485FC7"/>
</g>
<defs>
<clipPath id="clip0_340_13984">
<rect width="24" height="24" fill="white"/>
</clipPath>
</defs>
</svg>

<svg width="24" height="24" fill="none" xmlns="http://www.w3.org/2000/svg"><g clip-path="url(#a)" fill-rule="evenodd" clip-rule="evenodd" fill="#485FC7"><path d="M5.04 11.38C5.04 6.995 8.085 3.6 12 3.6s6.96 3.396 6.96 7.78c0 1.488-.402 2.978-1.044 4.296a.72.72 0 0 1-1.295-.631c.563-1.155.899-2.43.899-3.666 0-3.737-2.541-6.339-5.52-6.339-2.978 0-5.52 2.602-5.52 6.34 0 1.235.336 2.51.899 3.665a.72.72 0 0 1-1.294.63c-.643-1.317-1.045-2.807-1.045-4.296v.001Zm3.814 6.914a.72.72 0 0 1 1.007-.154c.742.544 1.48.82 2.139.82.66 0 1.397-.276 2.14-.82a.72.72 0 1 1 .85 1.16c-.904.665-1.935 1.1-2.99 1.1-1.055 0-2.086-.435-2.99-1.1a.72.72 0 0 1-.156-1.006Z"/><path d="M13.733 16.11a.361.361 0 0 1-.083.503 2.817 2.817 0 0 1-1.65.547 2.815 2.815 0 0 1-1.65-.547.36.36 0 0 1 .42-.586c.372.267.79.413 1.23.413.44 0 .858-.146 1.23-.413a.36.36 0 0 1 .503.083Zm-5.213.69a.36.36 0 0 0-.36-.36H6.72a.36.36 0 1 0 0 .72H7.8v1.08a.36.36 0 1 0 .72 0V16.8Z"/><path d="M8.174 16.785a.36.36 0 0 1 0 .51l-1.44 1.44a.36.36 0 1 1-.509-.51l1.44-1.44a.36.36 0 0 1 .51 0h-.001Zm7.306.015a.36.36 0 0 1 .36-.36h1.44a.361.361 0 0 1 .333.498.359.359 0 0 1-.333.222H16.2v1.08a.36.36 0 0 1-.72 0V16.8Z"/><path d="M15.826 16.785a.359.359 0 0 0 0 .51l1.44 1.44a.36.36 0 0 0 .509-.51l-1.44-1.44a.36.36 0 0 0-.51 0h.001Z"/></g><defs><clipPath id="a"><path fill="#fff" d="M0 0h24v24H0z"/></clipPath></defs></svg>
